!!!OTL: 841. Bedenken in der Braeutigams-Wahl.
!!!ARE: Europa, Mitteleuropa, Deutschland, Thueringen; Sachsen
!!!SCT: E0841
!!!TXL: @@DE
!!!YEM: Copyright 1995, estate of Helmut Schaffrath.
**kern	**text
*ICvox	*
*M2/4	*
*k[b-]	*
*F:	*
=1	=1
!LO:TX:a:t=Munter.	!
{8cc	Mäd-
8cc	-chen,
8cc	willſt
8dd	du
=2	=2
4cc	frei-
8a}	-en,
{8cc	ſo
=3	=3
8cc	ſchik-
8b-	-ke
8g	dich
8e	da-
=4	=4
[4f	-ʒu!
8f]}	.
{8cc	So
=5	=5
8cc	nimm
8cc	dir
8cc	ei-
8dd	-nen
=6	=6
[8cc	Schu-
8cc]	.
8a}	-ſter,
{8a	der
=7	=7
8b-/	macht
8g	dir
8f	knap-
8e	-pe
=8	=8
(4g	Schuh!
8f)	.
8r}	.
==	==
!!!AGN: Hochzeits -, Ehestands - Lied
!!!ONB: ESAC (Essen Associative Code) Database: ERK2
!!!AMT: simple duple
!!!AIN: vox
!!!EED: Helmut Schaffrath
!!!EEV: 1.0
!!!GTL: Hochzeits- und Ehrstandslieder, nebst Nonnenklagen
!!!URL-scan: https://rosdok.uni-rostock.de/mcrviewer/recordIdentifier/rosdok_ppn745177662/iview2/phys_0647.iview2?x=129.88308448332373&y=1595.1790831410326&scale=0.7029437510502773&rotation=0&layout=singlePageLayout
!!!ENC: Anna Maria Matuszewska
!!!EEV: 2024/12/18
*-	*-
